X: 1
T: Handy With The Stick
M: 6/8
L: 1/8
R: jig
K: Emin
|:G/2A/2 | Bed ccc | GEG BGE | DEG GAB |edB cBA |
Bed cBA |GEG BGE | DEG GAB | Bed e2 :|
|: e/2f/2 | gdB GBd | gaf gdB | cAA EAA | ced cBA |
GBB Acc |GBA GGG | DEG GAB | Bed e2 :||
